X:1
T:Wenn mein Stündlein
T:Wenn mein Stündlein
T:Sethus Calvisius
C:Sethus Calvisius
%%score [ 1 2 3 4 ]
L:1/8
Q:1/4=120
M:2/2
K:F
V:1 treble nm="Soprano"
V:2 treble nm="Alto"
V:3 treble-8 nm="Tenor"
V:4 bass nm="Bass"
V:1
 F4 C2 D2 | E2 F2 G2 A2 | F2 A2 c2 c2 | A2 c2 B4 | A4 A4 | B2 A2 G2 F2 | A2 A2 F2 A2 | %7
w: 1.Wenn mein Stünd-|lein vor- han- den|ist, und ich soll|fahr'n mein Stra-|ße, so|g'leit du mich, Herr|Je- su Christ! Mit|
w: 2.Weil Du vom|Tod er- stan- den|bist, werd ich im|Grab nicht blei-|ben, mein|höch- ster Trost dein'|eAuf- fahrt ist, Tods-|
 c2 c2 A2 c2 | B4 A4 | A4 B2 A2 | G2 F2 A2 A2 | F2 G2 A2 A2 | D2 E2 F2 D2 | C2 C2 F2 G2 | %14
w: Hülf mich nicht ver-|la- ße,|mein' Seel' an|mei- nen letz- ten|End' be- fehl' ich|Herr, in dei- ne|Händ', Du wirst sie|
w: furcht kann sie ver-|trei- ben;|Denn wo Du|bist, da komm' ich|hin, daß ich stets|bei Dir leb' und|bin, d'rum fahr' ich|
 A3 G B2 A2 | G4 (F4 | F8) |] %17
w: wohl be- wah- *|* ren.|_|
w: hin mit Freu- *|* den.|_|
V:2
 C4 C2 =B,2 | C2 F2 E2 F2 | C2 C2 G2 G2 | A2 G2 G4 | F4 F4 | F2 F2 E2 D2 | ^C2 C2 D2 =C2 | %7
w: 1.Wenn mein Stünd-|lein vor- han- den|ist, und ich soll|fahr'n mein Stra-|ße, so|g'leit Du mich, Herr|Je- su Christ! Mit|
 G2 G2 A2 G2 | G4 F4 | F4 F2 F2 | E2 D2 ^C2 C2 | D2 E2 F2 C2 | =B,2 C2 C2 B,2 | C2 A,2 C2 C2 | %14
w: Hülf mich nicht ver-|la- ße,|mein' Seel' an|mei- nen letz- ten|End' be- fehl' ich|Herr, in dei- ne|Händ', Du wirst sie|
 F3 D G2 (F2 | F2) E2 (F4 | F8) |] %17
w: wohl be- wa- *|* * ren.|_|
V:3
 A4 G2 F2 | c2 A2 c2 c2 | A2 f2 e2 e2 | f2 e2 d4 | d4 c4 | d2 c2 c2 A2 | A2 A2 A2 f2 | %7
w: 2.Weil Du vom|Tod er- stan- den|bist, werd ich im|Grab nicht blei-|ben, mein|höch- ster Trost Dein'|Auf- fahrt ist, Tods-|
 e2 e2 f2 e2 | d4 d4 | c4 d2 c2 | c2 A2 A2 A2 | A2 c2 c2 A2 | G2 G2 A2 G2 | G2 F2 A2 c2 | %14
w: furcht kann sie ver-|trei- ben;|Denn wo Du|bist, da komm' ich|hin, daß ich stets|bei Dir leb' und|bin, d'rum fahr' ich|
 c3 B _e2 (c2 | c4) (c4 | c8) |] %17
w: hin mit Freu- *|* den.|_|
V:4
 F,4 E,2 D,2 | C,2 D,2 C,2 F,2 | F,2 F,2 C,2 C,2 | F,2 C,2 G,4 | D,4 F,4 | B,,2 F,2 C,2 D,2 | %6
w: 1.Wenn mein Stünd-|lein vor- han- den|ist, und ich soll|fahr'n mein' Stra-|ße, so|g'leit Du mich, Herr|
 A,,2 A,,2 D,2 F,2 | C,2 C,2 F,2 C,2 | G,4 D,4 | F,4 B,,2 F,2 | C,2 D,2 A,,2 A,,2 | %11
w: Je- su Christ! Mit|Hülf mich nicht ver-|la- ße,|mein' Seel' an|mei- nen letz- ten|
 D,2 C,2 F,2 F,,2 | G,,2 C,2 F,,2 G,,2 | C,2 F,,2 F,2 E,2 | F,3 G, _E,2 F,2 | C,4 (F,,4 | F,,8) |] %17
w: End' be- fehl' ich|Herr, in dei- ne|Händ', Du wirst sie|wohl be- wa- *|* ren.|_|

